assets/imgs/edit_icon/h4.svg

<svg viewBox="0 0 196.73 125.25" xmlns="http://www.w3.org/2000/svg"><g fill="#525566"><path d="m86 98.55v-31.41l-.38-.75q-17.73-.39-22.05-.39-23.32.19-23.32.57l.37.37v30.85a65.37 65.37 0 0 0 1.51 15.8q.38 1.32 5.17 3a24.62 24.62 0 0 0 6.49 1.69q.75 0 .84 2.82a10.1 10.1 0 0 1 -.47 4.14q-.94 0-11.56-.75t-15.52-.75q-4.89 0-14.2.66c-6.2.43-10.25.72-12.13.84-.5-.5-.75-1.56-.75-3.19 0-2.51.12-3.77.38-3.77a27.76 27.76 0 0 0 7.14-1.5q4.89-1.5 5.46-3 1.3-5.07 1.31-15.23v-71.84q0-11.48-1.29-14.71-1-2-5.29-3.54a22.16 22.16 0 0 0 -6.58-1.46c-.5 0-.75-1.29-.75-3.8 0-1.88.12-2.95.37-3.2l26.14 1.13q4.89 0 27.46-1.13a8.85 8.85 0 0 1 .57 4c0 2-.26 3-.76 3a26.83 26.83 0 0 0 -6.58 1.6c-3.26 1.06-5.08 2-5.45 2.91-1 2.63-1.51 8-1.51 16v26.7l.38.57q18.42.38 22.57.37 5.07 0 22-.37a1.09 1.09 0 0 0 .43-.78v-27.29q0-9.78-1.32-14.86-.57-1.5-5.17-3.2a22.44 22.44 0 0 0 -6.73-1.65c-.5 0-.78-1-.84-3.1s.15-3.4.65-3.9q26 1.13 28 1.13 2.85 0 25.41-1.13a10.58 10.58 0 0 1 .57 3.39c0 2.38-.32 3.57-.94 3.57a26.62 26.62 0 0 0 -6.58 1.6c-3.27 1.06-5 2-5.27 2.91q-1.5 5.64-1.5 16v70.32c0 6.77.5 12.11 1.5 16q.38 1.32 5.17 2.82a27 27 0 0 0 6.49 1.51c.5 0 .75 1.31.75 4a10.27 10.27 0 0 1 -.56 3.19q-1.69 0-11.1-.75t-14.29-.75q-5.08 0-15.33.66c-6.83.43-11.06.72-12.69.84-.51-.5-.72-1.78-.66-3.85s.34-3.11.85-3.11a25 25 0 0 0 7-1.69c3.26-1.13 5.08-2.19 5.46-3.2q1.08-4.38 1.13-14.91z"/><path d="m186.47 30.77c1.67 0 2.5.47 2.5 1.39v54.08h5.68c1.39 0 2.08 2.78 2.08 8.32a1.23 1.23 0 0 1 -.27.77 1.71 1.71 0 0 1 -.56.48l-.41.14h-6.49v23.57a26.68 26.68 0 0 1 -9.15 1.25q-8.06 0-8-1.8v-22.97h-34.61c-1.38-1.39-2.08-3.61-2.08-6.66l47.57-56.57a4.85 4.85 0 0 1 3.74-2zm-14.7 55.47v-27.87c0-.83-.14-1.25-.41-1.25a1.78 1.78 0 0 0 -.42.28l-22.74 27.18a.57.57 0 0 0 -.14.42c0 .83.32 1.24 1 1.24z"/></g></svg>

<svg xmlns="http://www.w3.org/2000/svg" viewBox="0 0 196.73 125.25"><defs><style>.cls-1{fill:#525566;}</style></defs><title>h4</title><g id="レイヤー_2" data-name="レイヤー 2"><g id="レイヤー_3" data-name="レイヤー 3"><path class="cls-1" d="M86,98.55V67.14l-.38-.75Q67.89,66,63.57,66q-23.32.19-23.32.57l.37.37V97.79a65.37,65.37,0,0,0,1.51,15.8q.38,1.32,5.17,3a24.62,24.62,0,0,0,6.49,1.69q.75,0,.84,2.82a10.1,10.1,0,0,1-.47,4.14q-.94,0-11.56-.75t-15.52-.75q-4.89,0-14.2.66c-6.2.43-10.25.72-12.13.84-.5-.5-.75-1.56-.75-3.19,0-2.51.12-3.77.38-3.77a27.76,27.76,0,0,0,7.14-1.5q4.89-1.5,5.46-3,1.3-5.07,1.31-15.23V26.71Q14.29,15.23,13,12,12,10,7.71,8.46A22.16,22.16,0,0,0,1.13,7C.63,7,.38,5.71.38,3.2.38,1.32.5.25.75,0L26.89,1.13q4.89,0,27.46-1.13a8.85,8.85,0,0,1,.57,4c0,2-.26,3-.76,3a26.83,26.83,0,0,0-6.58,1.6c-3.26,1.06-5.08,2-5.45,2.91-1,2.63-1.51,8-1.51,16v26.7l.38.57q18.42.38,22.57.37,5.07,0,22-.37A1.09,1.09,0,0,0,86,54V26.71q0-9.78-1.32-14.86-.57-1.5-5.17-3.2A22.44,22.44,0,0,0,72.78,7c-.5,0-.78-1-.84-3.1S72.09.5,72.59,0q26,1.13,28,1.13Q103.44,1.13,126,0a10.58,10.58,0,0,1,.57,3.39c0,2.38-.32,3.57-.94,3.57a26.62,26.62,0,0,0-6.58,1.6c-3.27,1.06-5,2-5.27,2.91q-1.5,5.64-1.5,16V97.79c0,6.77.5,12.11,1.5,16q.38,1.32,5.17,2.82a27,27,0,0,0,6.49,1.51c.5,0,.75,1.31.75,4a10.27,10.27,0,0,1-.56,3.19q-1.69,0-11.1-.75t-14.29-.75q-5.08,0-15.33.66c-6.83.43-11.06.72-12.69.84-.51-.5-.72-1.78-.66-3.85s.34-3.11.85-3.11a25,25,0,0,0,7-1.69c3.26-1.13,5.08-2.19,5.46-3.2Q85.95,109.08,86,98.55Z"/><path class="cls-1" d="M186.47,30.77c1.67,0,2.5.47,2.5,1.39V86.24h5.68c1.39,0,2.08,2.78,2.08,8.32a1.23,1.23,0,0,1-.27.77,1.71,1.71,0,0,1-.56.48l-.41.14H189v23.57a26.68,26.68,0,0,1-9.15,1.25q-8.06,0-8-1.8V96H137.24c-1.38-1.39-2.08-3.61-2.08-6.66l47.57-56.57A4.85,4.85,0,0,1,186.47,30.77Zm-14.7,55.47V58.37c0-.83-.14-1.25-.41-1.25a1.78,1.78,0,0,0-.42.28L148.2,84.58a.57.57,0,0,0-.14.42c0,.83.32,1.24,1,1.24Z"/></g></g></svg>
